public/images/home/who-we-are/who-we-are-hash-icon.svg

<svg width="141" height="283" viewBox="0 0 141 283" fill="none" xmlns="http://www.w3.org/2000/svg">
<path fill-rule="evenodd" clip-rule="evenodd" d="M214.931 163.085L222.356 119.831H252.679C266.71 119.831 277.631 108.805 277.631 94.5246C277.631 80.2444 266.71 69.2179 252.679 69.2179H230.053L237.247 30.9531L237.261 30.8987C240.299 18.5871 231.205 5.83768 216.864 2.60889L216.838 2.60304L216.813 2.5965C204.738 -0.461832 192.15 8.67831 188.942 23.2453L180.216 69.2179H123.928L131.122 30.9531L131.136 30.8987C134.174 18.5871 125.08 5.83768 110.739 2.60889L110.713 2.60304L110.687 2.5965C98.6128 -0.461849 86.025 8.67841 82.8166 23.2456L74.0905 69.2179H26.9522C12.9207 69.2179 2 80.2444 2 94.5246C2 108.514 15.9785 119.831 30.3212 119.831H68.0689L60.6443 163.085H30.3212C16.2897 163.085 5.369 174.111 5.369 188.391C5.369 202.672 16.2897 213.698 30.3212 213.698H52.9468L45.7527 251.963L45.7393 252.017C42.7013 264.329 51.7946 277.078 66.1357 280.307L66.2374 280.33L66.3363 280.363C70.6418 281.817 76.7403 280.785 82.2924 277.169C87.7797 273.595 92.4829 267.641 94.0543 259.692C94.0548 259.689 94.0553 259.687 94.0557 259.684L102.784 213.698H159.072L151.878 251.963L151.864 252.017C148.826 264.329 157.92 277.078 172.261 280.307L172.363 280.33L172.461 280.363C176.767 281.817 182.865 280.785 188.418 277.169C193.905 273.595 198.608 267.642 200.179 259.693C200.18 259.69 200.18 259.687 200.181 259.684L208.91 213.698H256.048C269.975 213.698 280.837 202.835 280.998 188.71C276.024 173.908 264.836 163.085 252.679 163.085H214.931ZM283 188.391C283 203.751 271.208 215.698 256.048 215.698H210.566L202.143 260.072C198.774 277.138 181.929 285.672 171.822 282.258C156.661 278.845 146.554 265.192 149.923 251.538L156.661 215.698H104.441L96.0179 260.072C92.6488 277.138 75.8035 285.672 65.6964 282.258C50.5356 278.845 40.4284 265.192 43.7975 251.538L50.5358 215.698H30.3212C15.1605 215.698 3.369 203.751 3.369 188.391C3.369 173.031 15.1605 161.085 30.3212 161.085H58.9584L65.6964 121.831H30.3212C15.1605 121.831 0 109.885 0 94.5246C0 79.1646 11.7915 67.2179 26.9522 67.2179H72.4344L80.857 22.8444C84.2261 7.48441 97.7023 -2.75561 111.179 0.657729C126.339 4.07107 136.446 17.7244 133.077 31.3778L126.339 67.2179H178.56L186.982 22.8444C190.351 7.48441 203.827 -2.75561 217.304 0.657729C232.464 4.07107 242.572 17.7244 239.203 31.3778L232.464 67.2179H252.679C267.84 67.2179 279.631 79.1646 279.631 94.5246C279.631 109.885 267.84 121.831 252.679 121.831H224.042L217.304 161.085H252.679C266.155 161.085 277.946 173.031 283 188.391ZM165.085 163.085H108.806L116.231 119.831H172.509L165.085 163.085ZM117.917 121.831H170.137L163.399 161.085H111.179L117.917 121.831Z" fill="#C4C4C4" fill-opacity="0.4"/>
</svg>

<svg xmlns="http://www.w3.org/2000/svg" width="141" height="283" fill="none" xmlns:v="https://vecta.io/nano"><path fill-rule="evenodd" d="M214.931 163.085l7.425-43.254h30.323c14.031 0 24.952-11.026 24.952-25.306s-10.921-25.307-24.952-25.307h-22.626l7.194-38.265.014-.054c3.038-12.312-6.056-25.061-20.397-28.29l-.026-.006-.025-.007c-12.075-3.058-24.663 6.082-27.871 20.649l-8.726 45.973h-56.288l7.194-38.265.014-.054c3.038-12.312-6.056-25.061-20.397-28.29l-.026-.006-.026-.007C98.613-.462 86.025 8.678 82.817 23.246l-8.726 45.972H26.952C12.921 69.218 2 80.244 2 94.525c0 13.989 13.979 25.306 28.321 25.306h37.748l-7.425 43.254H30.321c-14.032 0-24.952 11.026-24.952 25.306s10.921 25.307 24.952 25.307h22.626l-7.194 38.265-.013.054c-3.038 12.312 6.055 25.061 20.396 28.29l.102.023.099.033c4.306 1.454 10.404.422 15.956-3.194 5.487-3.574 10.191-9.528 11.762-17.477l8.73-45.994h56.288l-7.194 38.265-.014.054c-3.038 12.312 6.056 25.061 20.397 28.29l.102.023.098.033c4.306 1.454 10.404.422 15.957-3.194a26.99 26.99 0 0 0 11.761-17.476l8.731-45.995h47.138c13.927 0 24.789-10.863 24.95-24.988-4.974-14.802-16.162-25.625-28.319-25.625h-37.748zM283 188.391c0 15.36-11.792 27.307-26.952 27.307h-45.482l-8.423 44.374c-3.369 17.066-20.214 25.6-30.321 22.186-15.161-3.413-25.268-17.066-21.899-30.72l6.738-35.84h-52.22l-8.423 44.374c-3.369 17.066-20.214 25.6-30.321 22.186-15.161-3.413-25.268-17.066-21.899-30.72l6.738-35.84H30.321c-15.161 0-26.952-11.947-26.952-27.307s11.792-27.306 26.952-27.306h28.637l6.738-39.254H30.321C15.161 121.831 0 109.885 0 94.525s11.792-27.307 26.952-27.307h45.482l8.423-44.373c3.369-15.36 16.845-25.6 30.322-22.187 15.16 3.413 25.267 17.067 21.898 30.72l-6.738 35.84h52.221l8.422-44.373c3.369-15.36 16.845-25.6 30.322-22.187 15.16 3.413 25.268 17.067 21.899 30.72l-6.739 35.84h20.215c15.161 0 26.952 11.947 26.952 27.307s-11.791 27.306-26.952 27.306h-28.637l-6.738 39.254h35.375c13.476 0 25.267 11.946 30.321 27.306zm-117.915-25.306h-56.279l7.425-43.254h56.278l-7.424 43.254zm-47.168-41.254h52.22l-6.738 39.254h-52.22l6.738-39.254z" fill="#c4c4c4" fill-opacity=".4"/></svg>
